resources/einthovens.svg

<svg viewBox="-68.6798 -68.6869 602.878 389.562" xmlns="http://www.w3.org/2000/svg"><defs><font horiz-adv-x="0" id="cmr10"><font-face ascent="750" descent="250" font-family="cmr10"/><glyph d="M448 400h115v31H445v116c0 89 48 136 93 136 3 0 18 0 33-7-12-4-30-17-30-42 0-23 16-43 43-43 29 0 44 20 44 44 0 36-35 70-91 70-59 0-103-38-108-42-29 37-85 42-112 42-95 0-211-52-211-160V431H27v-31h79V76c0-45-11-45-78-45V0c33 1 86 3 111 3s74-2 111-3v31c-67 0-78 0-78 45v324h210V76c0-45-11-45-78-45V0c39 1 86 3 114 3 40 0 87 0 127-3v31h-21c-74 0-76 11-76 47v322zm-279 31v113c0 97 82 139 147 139 49 0 77-19 78-19v-1c-17-2-37-15-37-43 0-6 1-31 28-40-3-13-3-22-3-34V431H169z" glyph-name="ff" horiz-adv-x="583" unicode="ﬀ" vert-adv-y="583"/><glyph d="M398 696c-5 13-7 20-23 20s-19-6-24-20L144 98C126 47 86 32 32 31V0c23 1 66 3 102 3 31 0 83-2 115-3v31c-50 0-75 25-75 51 0 3 1 13 2 15l46 131h247l53-153c1-4 3-10 3-14 0-30-56-30-83-30V0c36 3 106 3 144 3 43 0 89-1 131-3v31h-18c-60 0-74 7-85 40L398 696zm-53-112l113-325H233l112 325z" glyph-name="A" horiz-adv-x="750" unicode="A" vert-adv-y="750"/><glyph d="M136 78c0-36-2-47-79-47H33V0h577l42 258h-25C602 104 579 31 407 31H274c-47 0-49 7-49 40v267h90c97 0 108-32 108-117h25v265h-25c0-86-11-117-108-117h-90v240c0 33 2 40 49 40h129c153 0 180-55 196-194h25l-28 225H33v-31h24c77 0 79-11 79-47V78z" glyph-name="E" horiz-adv-x="680" unicode="E" vert-adv-y="680"/><glyph d="M582 680H33v-31h24c77 0 79-11 79-47V78c0-36-2-47-79-47H33V0c35 3 113 3 152 3 41 0 132 0 168-3v31h-33c-95 0-95 13-95 48v246h86c96 0 106-32 106-117h25v265h-25c0-84-10-117-106-117h-86v253c0 33 2 40 49 40h120c150 0 175-56 191-194h25l-28 225z" glyph-name="F" horiz-adv-x="652" unicode="F" vert-adv-y="652"/><glyph d="M225 605c0 36 3 47 82 47h26v31c-35-3-114-3-152-3-39 0-118 0-153 3v-31h26c79 0 82-11 82-47V78c0-36-3-47-82-47H28V0c35 3 114 3 152 3 39 0 118 0 153-3v31h-26c-79 0-82 11-82 47v527z" glyph-name="I" horiz-adv-x="361" unicode="I" vert-adv-y="361"/><glyph d="M582 258h-25C546 156 532 31 356 31h-82c-47 0-49 7-49 40v533c0 34 0 48 95 48h33v31c-36-3-127-3-168-3-39 0-117 0-152 3v-31h24c77 0 79-11 79-47V78c0-36-2-47-79-47H33V0h521l28 258z" glyph-name="L" horiz-adv-x="625" unicode="L" vert-adv-y="625"/><glyph d="M224 353v259c0 23 0 35 22 38 10 2 39 2 59 2 90 0 202-4 202-149 0-69-24-150-172-150H224zm211-13c97 24 175 85 175 163 0 96-114 180-261 180H35v-31h24c77 0 79-11 79-47V78c0-36-2-47-79-47H35V0c36 3 107 3 146 3s110 0 146-3v31h-24c-77 0-79 11-79 47v253h115c16 0 58 0 93-34 38-36 38-67 38-134 0-65 0-105 41-143 41-36 96-42 126-42 78 0 95 82 95 110 0 6 0 17-13 17-11 0-11-9-12-16-6-71-41-89-66-89-49 0-57 51-71 144l-13 80c-18 64-67 97-122 116z" glyph-name="R" horiz-adv-x="736" unicode="R" vert-adv-y="736"/><glyph d="M621 585c14 37 41 66 109 67v31c-31-2-71-3-97-3-30 0-88 2-114 3v-31c52-1 73-27 73-50 0-8-3-14-5-20L404 100 213 605c-6 14-6 16-6 18 0 29 57 29 82 29v31c-36-3-105-3-143-3-48 0-91 2-127 3v-31c65 0 84 0 98-38L349 0c7-19 12-22 25-22 17 0 19 5 24 19l223 588z" glyph-name="V" horiz-adv-x="750" unicode="V" vert-adv-y="750"/><glyph d="M333 76c4-40 31-82 78-82 21 0 82 14 82 95v56h-25V89c0-58-25-64-36-64-33 0-37 45-37 50v200c0 42 0 81-36 118-39 39-89 55-137 55-82 0-151-47-151-113 0-30 20-47 46-47 28 0 46 20 46 46 0 12-5 45-51 46 27 35 76 46 108 46 49 0 106-39 106-128v-37c-51-3-121-6-184-36C67 191 42 139 42 95c0-81 97-106 160-106 66 0 112 40 131 87zm-7 164V140c0-95-72-129-117-129-49 0-90 35-90 85 0 55 42 138 207 144z" glyph-name="a" horiz-adv-x="500" unicode="a" vert-adv-y="500"/><glyph d="M117 218c0 163 82 205 135 205 9 0 72-1 107-37-41-3-47-33-47-46 0-26 18-46 46-46 26 0 46 17 46 47 0 68-76 107-153 107-125 0-217-108-217-232C34 88 133-11 249-11c134 0 166 120 166 130s-10 10-13 10c-9 0-11-4-13-10-29-93-94-105-131-105-53 0-141 43-141 204z" glyph-name="c" horiz-adv-x="444" unicode="c" vert-adv-y="444"/><glyph d="M380 55v-66L527 0v31c-70 0-78 7-78 56v607l-144-11v-31c70 0 78-7 78-56V380c-29 36-72 62-126 62-118 0-223-98-223-227C34 88 132-11 246-11c64 0 109 34 134 66zm0 268V118c0-18 0-20-11-37-30-48-75-70-118-70-45 0-81 26-105 64-26 41-29 98-29 139 0 37 2 97 31 142 21 31 59 64 113 64 35 0 77-15 108-60 11-17 11-19 11-37z" glyph-name="d" horiz-adv-x="555" unicode="d" vert-adv-y="555"/><glyph d="M112 252c6 149 90 174 124 174 103 0 113-135 113-174H112zm-1-21h279c22 0 25 0 25 21 0 99-54 196-179 196-116 0-208-103-208-228C28 86 133-11 248-11c122 0 167 111 167 130 0 10-8 12-13 12-9 0-11-6-13-14C354 14 264 14 254 14c-50 0-90 30-113 67-30 48-30 114-30 150z" glyph-name="e" horiz-adv-x="444" unicode="e" vert-adv-y="444"/><glyph d="M177 442L37 431v-31c65 0 74-6 74-55V76c0-45-11-45-78-45V0c32 1 86 3 110 3 35 0 70-2 104-3v31c-66 0-70 5-70 44v367zm4 174c0 32-25 53-53 53-31 0-53-27-53-53 0-27 22-53 53-53 28 0 53 21 53 53z" glyph-name="i" horiz-adv-x="277" unicode="i" vert-adv-y="277"/><glyph d="M177 694L33 683v-31c70 0 78-7 78-56V76c0-45-11-45-78-45V0c33 1 86 3 111 3s74-2 111-3v31c-67 0-78 0-78 45v618z" glyph-name="l" horiz-adv-x="277" unicode="l" vert-adv-y="277"/><glyph d="M110 344V76c0-45-11-45-78-45V0c35 1 86 3 113 3 26 0 78-2 112-3v31c-67 0-78 0-78 45v184c0 104 71 160 135 160 63 0 74-54 74-111V76c0-45-11-45-78-45V0c35 1 86 3 113 3 26 0 78-2 112-3v31c-52 0-77 0-78 30v191c0 86 0 117-31 153-14 17-47 37-105 37-73 0-120-43-148-105v105L32 431v-31c70 0 78-7 78-56z" glyph-name="n" horiz-adv-x="555" unicode="n" vert-adv-y="555"/><glyph d="M471 214c0 128-100 234-221 234-125 0-222-109-222-234C28 85 132-11 249-11c121 0 222 98 222 225zM250 14c-43 0-87 21-114 67-25 44-25 105-25 141 0 39 0 93 24 137 27 46 74 67 114 67 44 0 87-22 113-65s26-101 26-139c0-36 0-90-22-134-22-45-66-74-116-74z" glyph-name="o" horiz-adv-x="500" unicode="o" vert-adv-y="500"/><glyph d="M167 332v110L28 431v-31c70 0 78-7 78-56V76c0-45-11-45-78-45V0c39 1 86 3 114 3 40 0 87 0 127-3v31h-21c-74 0-76 11-76 47v154c0 99 42 188 118 188 7 0 9 0 11-1-3-1-23-13-23-39 0-28 21-43 43-43 18 0 43 12 43 44s-31 61-74 61c-73 0-109-67-123-110z" glyph-name="r" horiz-adv-x="391" unicode="r" vert-adv-y="391"/><glyph d="M173 400h143v31H173v184h-25c-1-82-31-189-129-193v-22h85V124C104 1 197-11 233-11c71 0 99 71 99 135v57h-25v-55c0-74-30-112-67-112-67 0-67 91-67 108v278z" glyph-name="t" horiz-adv-x="388" unicode="t" vert-adv-y="388"/></font></defs><style>text.f0{font-family:cmr10;font-size:9.96264px}</style><g id="page1"><path d="M-50.156-58.16H516.78L233.312 310.348z" fill="none" stroke="#000" stroke-width=".8"/><text class="f0" transform="translate(-18.525 -570.655)" x="-50.155" y="508.776">R<tspan x="-42.821">A</tspan></text><text class="f0" transform="translate(281.669 -570.655)" x="-50.155" y="508.776">I</text><text class="f0" transform="translate(570.655 -570.655)" x="-50.155" y="508.776">L<tspan x="-43.928">A</tspan></text><text class="f0" transform="translate(428.921 -379.278)" x="-50.155" y="508.776">I<tspan x="-46.281">I</tspan> <tspan x="-42.406">I</tspan></text><text class="f0" transform="translate(277.241 -187.901)" x="-50.155" y="508.776">L<tspan x="-43.928">L</tspan></text><text class="f0" transform="translate(130.543 -379.278)" x="-50.155" y="508.776">I<tspan x="-46.281">I</tspan></text><path d="M233.312 55.227L-45.242-55.063" fill="none" stroke="#000" stroke-dasharray="2.98883,2.98883" stroke-miterlimit="10.037" stroke-width=".8"/><path d="M-44.559-52.559c.164-.773-.734-2.386-1.046-2.648.41.023 2.167-.54 2.574-1.215" fill="none" stroke="#000" stroke-linecap="round" stroke-linejoin="round" stroke-miterlimit="10.037" stroke-width=".641"/><path d="M235.805 55.227c0-1.375-1.118-2.489-2.493-2.489s-2.488 1.114-2.488 2.489a2.49 2.49 0 1 0 4.981 0z"/><text class="f0" transform="translate(287.187 -442.911)" x="-50.155" y="508.776">I<tspan x="-46.557">n</tspan> <tspan x="-41.022">d</tspan> <tspan x="-35.488">i</tspan> <tspan x="-32.72">ﬀ</tspan> <tspan x="-26.909">e</tspan> <tspan x="-22.481">r</tspan> <tspan x="-18.579">e</tspan> <tspan x="-14.151">n</tspan> <tspan x="-8.893">t</tspan> <tspan x="-1.698">E</tspan> <tspan x="5.083">l</tspan> <tspan x="7.85">e</tspan> <tspan x="12.278">c</tspan> <tspan x="16.706">t</tspan> <tspan x="20.58">r</tspan> <tspan x="24.482">o</tspan> <tspan x="29.74">d</tspan> <tspan x="35.275">e</tspan></text><text class="f0" transform="translate(147.579 -512.544)" x="-50.155" y="508.776">a<tspan x="-45.173">V</tspan> <tspan x="-37.702">R</tspan></text><path d="M233.312 55.227l277.141-110.29" fill="none" stroke="#000" stroke-dasharray="2.98883,2.98883" stroke-miterlimit="10.037" stroke-width=".8"/><path d="M508.238-56.418c.407.676 2.168 1.234 2.578 1.211-.316.266-1.211 1.879-1.043 2.652" fill="none" stroke="#000" stroke-linecap="round" stroke-linejoin="round" stroke-miterlimit="10.037" stroke-width=".642"/><text class="f0" transform="translate(399.968 -512.544)" x="-50.155" y="508.776">a<tspan x="-45.173">V</tspan> <tspan x="-37.702">L</tspan></text><path d="M233.312 55.227v251.578" fill="none" stroke="#000" stroke-dasharray="2.98883,2.98883" stroke-miterlimit="10.037" stroke-width=".8"/><path d="M235.387 305.254c-.778.129-1.946 1.551-2.075 1.941-.129-.39-1.293-1.812-2.07-1.941" fill="none" stroke="#000" stroke-linecap="round" stroke-linejoin="round" stroke-miterlimit="10.037" stroke-width=".64"/><text class="f0" transform="translate(287.187 -324.002)" x="-50.155" y="508.776">a<tspan x="-45.173">V</tspan> <tspan x="-37.702">F</tspan></text><path d="M-50.156-58.16h282.761" fill="none" stroke="#000" stroke-miterlimit="10.037" stroke-width=".8"/><path d="M231.051-60.23c.129.773 1.555 1.941 1.945 2.07-.39.129-1.816 1.297-1.945 2.07" fill="none" stroke="#000" stroke-linecap="round" stroke-linejoin="round" stroke-miterlimit="10.037" stroke-width=".64"/><path d="M516.781-58.16L375.48 125.531" fill="none" stroke="#000" stroke-miterlimit="10.037" stroke-width=".8"/><path d="M378.082 125.563c-.7-.372-2.5.046-2.84.277.136-.387.078-2.238-.461-2.816" fill="none" stroke="#000" stroke-linecap="round" stroke-linejoin="round" stroke-miterlimit="10.037" stroke-width=".643"/><path d="M-50.156-58.16l141.3 183.691" fill="none" stroke="#000" stroke-miterlimit="10.037" stroke-width=".8"/><path d="M91.844 123.024c-.54.578-.594 2.429-.461 2.816-.34-.231-2.14-.649-2.84-.277" fill="none" stroke="#000" stroke-linecap="round" stroke-linejoin="round" stroke-miterlimit="10.037" stroke-width=".643"/></g></svg>

<?xml version='1.0' encoding='UTF-8'?>
<!-- This file was generated by dvisvgm 2.1.3 -->
<svg height='389.562pt' version='1.1' viewBox='-68.6798 -68.6869 602.878 389.562' width='602.878pt' xmlns='http://www.w3.org/2000/svg' xmlns:xlink='http://www.w3.org/1999/xlink'>
<defs>
<font horiz-adv-x='0' id='cmr10'>
<font-face ascent='750' descent='250' font-family='cmr10' units-per-em='1000'/>
<glyph d='M448 400H563V431H445V547C445 636 493 683 538 683C541 683 556 683 571 676C559 672 541 659 541 634C541 611 557 591 584 591C613 591 628 611 628 635C628 671 593 705 537 705C478 705 434 667 429 663C400 700 344 705 317 705C222 705 106 653 106 545V431H27V400H106V76C106 31 95 31 28 31V0C61 1 114 3 139 3S213 1 250 0V31C183 31 172 31 172 76V400H382V76C382 31 371 31 304 31V0C343 1 390 3 418 3C458 3 505 3 545 0V31H524C450 31 448 42 448 78V400ZM169 431V544C169 641 251 683 316 683C365 683 393 664 394 664V663C377 661 357 648 357 620C357 614 358 589 385 580C382 567 382 558 382 546V431H169Z' glyph-name='ff' horiz-adv-x='583' unicode='ﬀ' vert-adv-y='583'/>
<glyph d='M398 696C393 709 391 716 375 716S356 710 351 696L144 98C126 47 86 32 32 31V0C55 1 98 3 134 3C165 3 217 1 249 0V31C199 31 174 56 174 82C174 85 175 95 176 97L222 228H469L522 75C523 71 525 65 525 61C525 31 469 31 442 31V0C478 3 548 3 586 3C629 3 675 2 717 0V31H699C639 31 625 38 614 71L398 696ZM345 584L458 259H233L345 584Z' glyph-name='A' horiz-adv-x='750' unicode='A' vert-adv-y='750'/>
<glyph d='M136 78C136 42 134 31 57 31H33V0H610L652 258H627C602 104 579 31 407 31H274C227 31 225 38 225 71V338H315C412 338 423 306 423 221H448V486H423C423 400 412 369 315 369H225V609C225 642 227 649 274 649H403C556 649 583 594 599 455H624L596 680H33V649H57C134 649 136 638 136 602V78Z' glyph-name='E' horiz-adv-x='680' unicode='E' vert-adv-y='680'/>
<glyph d='M582 680H33V649H57C134 649 136 638 136 602V78C136 42 134 31 57 31H33V0C68 3 146 3 185 3C226 3 317 3 353 0V31H320C225 31 225 44 225 79V325H311C407 325 417 293 417 208H442V473H417C417 389 407 356 311 356H225V609C225 642 227 649 274 649H394C544 649 569 593 585 455H610L582 680Z' glyph-name='F' horiz-adv-x='652' unicode='F' vert-adv-y='652'/>
<glyph d='M225 605C225 641 228 652 307 652H333V683C298 680 219 680 181 680C142 680 63 680 28 683V652H54C133 652 136 641 136 605V78C136 42 133 31 54 31H28V0C63 3 142 3 180 3C219 3 298 3 333 0V31H307C228 31 225 42 225 78V605Z' glyph-name='I' horiz-adv-x='361' unicode='I' vert-adv-y='361'/>
<glyph d='M582 258H557C546 156 532 31 356 31H274C227 31 225 38 225 71V604C225 638 225 652 320 652H353V683C317 680 226 680 185 680C146 680 68 680 33 683V652H57C134 652 136 641 136 605V78C136 42 134 31 57 31H33V0H554L582 258Z' glyph-name='L' horiz-adv-x='625' unicode='L' vert-adv-y='625'/>
<glyph d='M224 353V612C224 635 224 647 246 650C256 652 285 652 305 652C395 652 507 648 507 503C507 434 483 353 335 353H224ZM435 340C532 364 610 425 610 503C610 599 496 683 349 683H35V652H59C136 652 138 641 138 605V78C138 42 136 31 59 31H35V0C71 3 142 3 181 3S291 3 327 0V31H303C226 31 224 42 224 78V331H339C355 331 397 331 432 297C470 261 470 230 470 163C470 98 470 58 511 20C552 -16 607 -22 637 -22C715 -22 732 60 732 88C732 94 732 105 719 105C708 105 708 96 707 89C701 18 666 0 641 0C592 0 584 51 570 144L557 224C539 288 490 321 435 340Z' glyph-name='R' horiz-adv-x='736' unicode='R' vert-adv-y='736'/>
<glyph d='M621 585C635 622 662 651 730 652V683C699 681 659 680 633 680C603 680 545 682 519 683V652C571 651 592 625 592 602C592 594 589 588 587 582L404 100L213 605C207 619 207 621 207 623C207 652 264 652 289 652V683C253 680 184 680 146 680C98 680 55 682 19 683V652C84 652 103 652 117 614L349 0C356 -19 361 -22 374 -22C391 -22 393 -17 398 -3L621 585Z' glyph-name='V' horiz-adv-x='750' unicode='V' vert-adv-y='750'/>
<glyph d='M333 76C337 36 364 -6 411 -6C432 -6 493 8 493 89V145H468V89C468 31 443 25 432 25C399 25 395 70 395 75V275C395 317 395 356 359 393C320 432 270 448 222 448C140 448 71 401 71 335C71 305 91 288 117 288C145 288 163 308 163 334C163 346 158 379 112 380C139 415 188 426 220 426C269 426 326 387 326 298V261C275 258 205 255 142 225C67 191 42 139 42 95C42 14 139 -11 202 -11C268 -11 314 29 333 76ZM326 240V140C326 45 254 11 209 11C160 11 119 46 119 96C119 151 161 234 326 240Z' glyph-name='a' horiz-adv-x='500' unicode='a' vert-adv-y='500'/>
<glyph d='M117 218C117 381 199 423 252 423C261 423 324 422 359 386C318 383 312 353 312 340C312 314 330 294 358 294C384 294 404 311 404 341C404 409 328 448 251 448C126 448 34 340 34 216C34 88 133 -11 249 -11C383 -11 415 109 415 119S405 129 402 129C393 129 391 125 389 119C360 26 295 14 258 14C205 14 117 57 117 218Z' glyph-name='c' horiz-adv-x='444' unicode='c' vert-adv-y='444'/>
<glyph d='M380 55V-11L527 0V31C457 31 449 38 449 87V694L305 683V652C375 652 383 645 383 596V380C354 416 311 442 257 442C139 442 34 344 34 215C34 88 132 -11 246 -11C310 -11 355 23 380 55ZM380 323V118C380 100 380 98 369 81C339 33 294 11 251 11C206 11 170 37 146 75C120 116 117 173 117 214C117 251 119 311 148 356C169 387 207 420 261 420C296 420 338 405 369 360C380 343 380 341 380 323Z' glyph-name='d' horiz-adv-x='555' unicode='d' vert-adv-y='555'/>
<glyph d='M112 252C118 401 202 426 236 426C339 426 349 291 349 252H112ZM111 231H390C412 231 415 231 415 252C415 351 361 448 236 448C120 448 28 345 28 220C28 86 133 -11 248 -11C370 -11 415 100 415 119C415 129 407 131 402 131C393 131 391 125 389 117C354 14 264 14 254 14C204 14 164 44 141 81C111 129 111 195 111 231Z' glyph-name='e' horiz-adv-x='444' unicode='e' vert-adv-y='444'/>
<glyph d='M177 442L37 431V400C102 400 111 394 111 345V76C111 31 100 31 33 31V0C65 1 119 3 143 3C178 3 213 1 247 0V31C181 31 177 36 177 75V442ZM181 616C181 648 156 669 128 669C97 669 75 642 75 616C75 589 97 563 128 563C156 563 181 584 181 616Z' glyph-name='i' horiz-adv-x='277' unicode='i' vert-adv-y='277'/>
<glyph d='M177 694L33 683V652C103 652 111 645 111 596V76C111 31 100 31 33 31V0C66 1 119 3 144 3S218 1 255 0V31C188 31 177 31 177 76V694Z' glyph-name='l' horiz-adv-x='277' unicode='l' vert-adv-y='277'/>
<glyph d='M110 344V76C110 31 99 31 32 31V0C67 1 118 3 145 3C171 3 223 1 257 0V31C190 31 179 31 179 76V260C179 364 250 420 314 420C377 420 388 366 388 309V76C388 31 377 31 310 31V0C345 1 396 3 423 3C449 3 501 1 535 0V31C483 31 458 31 457 61V252C457 338 457 369 426 405C412 422 379 442 321 442C248 442 201 399 173 337V442L32 431V400C102 400 110 393 110 344Z' glyph-name='n' horiz-adv-x='555' unicode='n' vert-adv-y='555'/>
<glyph d='M471 214C471 342 371 448 250 448C125 448 28 339 28 214C28 85 132 -11 249 -11C370 -11 471 87 471 214ZM250 14C207 14 163 35 136 81C111 125 111 186 111 222C111 261 111 315 135 359C162 405 209 426 249 426C293 426 336 404 362 361S388 260 388 222C388 186 388 132 366 88C344 43 300 14 250 14Z' glyph-name='o' horiz-adv-x='500' unicode='o' vert-adv-y='500'/>
<glyph d='M167 332V442L28 431V400C98 400 106 393 106 344V76C106 31 95 31 28 31V0C67 1 114 3 142 3C182 3 229 3 269 0V31H248C174 31 172 42 172 78V232C172 331 214 420 290 420C297 420 299 420 301 419C298 418 278 406 278 380C278 352 299 337 321 337C339 337 364 349 364 381S333 442 290 442C217 442 181 375 167 332Z' glyph-name='r' horiz-adv-x='391' unicode='r' vert-adv-y='391'/>
<glyph d='M173 400H316V431H173V615H148C147 533 117 426 19 422V400H104V124C104 1 197 -11 233 -11C304 -11 332 60 332 124V181H307V126C307 52 277 14 240 14C173 14 173 105 173 122V400Z' glyph-name='t' horiz-adv-x='388' unicode='t' vert-adv-y='388'/>
</font>
</defs>
<style type='text/css'>
<![CDATA[
text.f0 {font-family:cmr10;font-size:9.96264px}
]]>
</style>
<g id='page1'>
<path d='M-50.1563 -58.16H516.781L233.312 310.348Z' fill='none' stroke='#000000' stroke-width='0.799999'/>
<text class='f0' transform='matrix(1 0 0 1 -18.5249 -570.655)' x='-50.1549' y='508.776'>R<tspan x='-42.8212'>A</tspan>
</text>
<text class='f0' transform='matrix(1 0 0 1 281.669 -570.655)' x='-50.1549' y='508.776'>I</text>
<text class='f0' transform='matrix(1 0 0 1 570.655 -570.655)' x='-50.1549' y='508.776'>L<tspan x='-43.9282'>A</tspan>
</text>
<text class='f0' transform='matrix(1 0 0 1 428.921 -379.278)' x='-50.1549' y='508.776'>I<tspan x='-46.2805'>I</tspan>
<tspan x='-42.4061'>I</tspan>
</text>
<text class='f0' transform='matrix(1 0 0 1 277.241 -187.901)' x='-50.1549' y='508.776'>L<tspan x='-43.9282'>L</tspan>
</text>
<text class='f0' transform='matrix(1 0 0 1 130.543 -379.278)' x='-50.1549' y='508.776'>I<tspan x='-46.2805'>I</tspan>
</text>
<path d='M233.312 55.227L-45.2422 -55.063' fill='none' stroke='#000000' stroke-dasharray='2.98883,2.98883' stroke-miterlimit='10.0375' stroke-width='0.799999'/>
<path d='M-44.5586 -52.5586C-44.3945 -53.332 -45.2929 -54.9453 -45.6054 -55.207C-45.1953 -55.1836 -43.4375 -55.7461 -43.0312 -56.4219' fill='none' stroke='#000000' stroke-linecap='round' stroke-linejoin='round' stroke-miterlimit='10.0375' stroke-width='0.64129'/>
<path d='M235.805 55.227C235.805 53.852 234.687 52.738 233.312 52.738S230.824 53.852 230.824 55.227S231.937 57.719 233.312 57.719S235.805 56.602 235.805 55.227Z'/>
<text class='f0' transform='matrix(1 0 0 1 287.187 -442.911)' x='-50.1549' y='508.776'>I<tspan x='-46.5572'>n</tspan>
<tspan x='-41.0224'>d</tspan>
<tspan x='-35.4876'>i</tspan>
<tspan x='-32.7202'>ﬀ</tspan>
<tspan x='-26.9086'>e</tspan>
<tspan x='-22.4808'>r</tspan>
<tspan x='-18.5787'>e</tspan>
<tspan x='-14.1509'>n</tspan>
<tspan x='-8.89281'>t</tspan>
<tspan x='-1.69756'>E</tspan>
<tspan x='5.08259'>l</tspan>
<tspan x='7.85'>e</tspan>
<tspan x='12.2779'>c</tspan>
<tspan x='16.7057'>t</tspan>
<tspan x='20.5801'>r</tspan>
<tspan x='24.4821'>o</tspan>
<tspan x='29.7402'>d</tspan>
<tspan x='35.275'>e</tspan>
</text>
<text class='f0' transform='matrix(1 0 0 1 147.579 -512.544)' x='-50.1549' y='508.776'>a<tspan x='-45.1735'>V</tspan>
<tspan x='-37.7015'>R</tspan>
</text>
<path d='M233.312 55.227L510.453 -55.063' fill='none' stroke='#000000' stroke-dasharray='2.98883,2.98883' stroke-miterlimit='10.0375' stroke-width='0.799999'/>
<path d='M508.238 -56.4179C508.645 -55.7421 510.406 -55.1836 510.816 -55.207C510.5 -54.9414 509.605 -53.3281 509.773 -52.5546' fill='none' stroke='#000000' stroke-linecap='round' stroke-linejoin='round' stroke-miterlimit='10.0375' stroke-width='0.641744'/>
<text class='f0' transform='matrix(1 0 0 1 399.968 -512.544)' x='-50.1549' y='508.776'>a<tspan x='-45.1735'>V</tspan>
<tspan x='-37.7015'>L</tspan>
</text>
<path d='M233.312 55.227V306.805' fill='none' stroke='#000000' stroke-dasharray='2.98883,2.98883' stroke-miterlimit='10.0375' stroke-width='0.799999'/>
<path d='M235.387 305.254C234.609 305.383 233.441 306.805 233.312 307.195C233.183 306.805 232.019 305.383 231.242 305.254' fill='none' stroke='#000000' stroke-linecap='round' stroke-linejoin='round' stroke-miterlimit='10.0375' stroke-width='0.639991'/>
<text class='f0' transform='matrix(1 0 0 1 287.187 -324.002)' x='-50.1549' y='508.776'>a<tspan x='-45.1735'>V</tspan>
<tspan x='-37.7015'>F</tspan>
</text>
<path d='M-50.1563 -58.16H232.605' fill='none' stroke='#000000' stroke-miterlimit='10.0375' stroke-width='0.799999'/>
<path d='M231.051 -60.2305C231.18 -59.457 232.606 -58.289 232.996 -58.1601C232.606 -58.0312 231.18 -56.8633 231.051 -56.0898' fill='none' stroke='#000000' stroke-linecap='round' stroke-linejoin='round' stroke-miterlimit='10.0375' stroke-width='0.639991'/>
<path d='M516.781 -58.16L375.48 125.531' fill='none' stroke='#000000' stroke-miterlimit='10.0375' stroke-width='0.799999'/>
<path d='M378.082 125.563C377.382 125.191 375.582 125.609 375.242 125.84C375.378 125.453 375.32 123.602 374.781 123.024' fill='none' stroke='#000000' stroke-linecap='round' stroke-linejoin='round' stroke-miterlimit='10.0375' stroke-width='0.642859'/>
<path d='M-50.1563 -58.16L91.1441 125.531' fill='none' stroke='#000000' stroke-miterlimit='10.0375' stroke-width='0.799999'/>
<path d='M91.8438 123.024C91.3047 123.602 91.25 125.453 91.3828 125.84C91.043 125.609 89.2422 125.191 88.543 125.563' fill='none' stroke='#000000' stroke-linecap='round' stroke-linejoin='round' stroke-miterlimit='10.0375' stroke-width='0.642858'/>
</g>
</svg>
